app/img/footer/label.svg

<svg width="194" height="89" viewBox="0 0 194 89" fill="none" xmlns="http://www.w3.org/2000/svg">
<g filter="url(#filter0_d_247_361)">
<path d="M10 16C10 12.6863 12.6863 10 16 10H173.796C177.11 10 179.796 12.6863 179.796 16V55.7347C179.796 59.0484 177.11 61.7347 173.796 61.7347H60.2404C58.6491 61.7347 57.123 62.3668 55.9977 63.4921L44.4898 75L32.2992 63.3899C31.1835 62.3273 29.7019 61.7347 28.1612 61.7347H16C12.6863 61.7347 10 59.0484 10 55.7347V16Z" fill="#FF4927"/>
</g>
<defs>
<filter id="filter0_d_247_361" x="0" y="0" width="193.796" height="89" filterUnits="userSpaceOnUse" color-interpolation-filters="sRGB">
<feFlood flood-opacity="0" result="BackgroundImageFix"/>
<feColorMatrix in="SourceAlpha" type="matrix" values="0 0 0 0 0 0 0 0 0 0 0 0 0 0 0 0 0 0 127 0" result="hardAlpha"/>
<feOffset dx="2" dy="2"/>
<feGaussianBlur stdDeviation="6"/>
<feComposite in2="hardAlpha" operator="out"/>
<feColorMatrix type="matrix" values="0 0 0 0 0.929167 0 0 0 0 0.200558 0 0 0 0 0.065816 0 0 0 0.5 0"/>
<feBlend mode="normal" in2="BackgroundImageFix" result="effect1_dropShadow_247_361"/>
<feBlend mode="normal" in="SourceGraphic" in2="effect1_dropShadow_247_361" result="shape"/>
</filter>
</defs>
</svg>

<svg width="194" height="89" fill="none" xmlns="http://www.w3.org/2000/svg"><g filter="url(#filter0_d_247_361)"><path d="M10 16a6 6 0 016-6h157.796a6 6 0 016 6v39.735a6 6 0 01-6 6H60.24a6 6 0 00-4.242 1.757L44.49 75 32.3 63.39a6 6 0 00-4.139-1.655H16a6 6 0 01-6-6V16z" fill="#FF4927"/></g><defs><filter id="filter0_d_247_361" x="0" y="0" width="193.796" height="89" filterUnits="userSpaceOnUse" color-interpolation-filters="sRGB"><feFlood flood-opacity="0" result="BackgroundImageFix"/><feColorMatrix in="SourceAlpha" values="0 0 0 0 0 0 0 0 0 0 0 0 0 0 0 0 0 0 127 0" result="hardAlpha"/><feOffset dx="2" dy="2"/><feGaussianBlur stdDeviation="6"/><feComposite in2="hardAlpha" operator="out"/><feColorMatrix values="0 0 0 0 0.929167 0 0 0 0 0.200558 0 0 0 0 0.065816 0 0 0 0.5 0"/><feBlend in2="BackgroundImageFix" result="effect1_dropShadow_247_361"/><feBlend in="SourceGraphic" in2="effect1_dropShadow_247_361" result="shape"/></filter></defs></svg>
